dealnox/img/sprite/icon-user.svg

<svg width="21" height="23" viewBox="0 0 21 23" fill="none" xmlns="http://www.w3.org/2000/svg">
<g clip-path="url(#clip0_666_658)">
<path d="M5.21968 12.4435H3.50105C3.49328 12.3172 3.48083 12.2067 3.48083 12.0906C3.48083 8.98575 3.48083 5.88087 3.48083 2.776C3.48083 1.12463 4.58433 0.00687656 6.21198 0.00529781C10.204 0.00214031 14.1981 0.00214031 18.1942 0.00529781C19.8273 0.00529781 20.9829 1.11042 20.9891 2.77363C21.0062 8.05086 21.0062 13.3276 20.9891 18.6037C20.9891 20.188 19.8226 21.3295 18.2673 21.331C15.531 21.3342 12.7946 21.3342 10.0583 21.331H9.42684C10.035 20.7216 10.5568 20.1817 11.1027 19.667C11.1968 19.5778 11.3889 19.5699 11.5366 19.5692C13.7141 19.5639 15.8915 19.5639 18.069 19.5692C18.9135 19.5692 19.2207 19.2581 19.2215 18.4096V2.8952C19.2215 2.10582 18.9275 1.80428 18.1429 1.80428H6.32008C5.49887 1.80428 5.21968 2.08608 5.21968 2.9094V12.4435Z" fill="#968E8E"/>
<path d="M13.9847 10.6459H6.99893C6.95927 9.72551 7.28978 8.95824 7.86991 8.28648C8.45005 7.61472 9.20594 7.2745 10.094 7.10242C9.04886 6.6509 8.56048 5.86547 8.74634 4.99084C8.82568 4.57645 9.04728 4.20407 9.37172 3.93996C9.69615 3.67585 10.1024 3.53713 10.5181 3.5485C10.9339 3.55987 11.3321 3.72057 11.6421 4.00203C11.952 4.28349 12.1536 4.66744 12.2108 5.08557C12.3368 5.97046 11.8407 6.72273 10.8445 7.08505C12.7544 7.51842 13.8315 8.65117 13.9847 10.6459Z" fill="#968E8E"/>
<path d="M5.22744 19.5608H0.0015564V17.7863H5.208V14.377L9.47349 18.7114C8.10947 20.0904 6.6739 21.5405 5.22589 23.0032L5.22744 19.5608Z" fill="#968E8E"/>
<path d="M6.98189 12.4756H17.4757V14.2012C17.3349 14.2091 17.2097 14.2217 17.0868 14.2225H8.13671C7.98471 14.2247 7.83383 14.196 7.69293 14.1381C7.55203 14.0801 7.42398 13.9942 7.31635 13.8852C7.20871 13.7763 7.12367 13.6465 7.06623 13.5037C7.00878 13.3608 6.98011 13.2077 6.98189 13.0534V12.4756Z" fill="#968E8E"/>
<path d="M9.43073 16.0352H17.4694V17.7718H16.9888C15.1629 17.7718 13.3338 17.7781 11.5094 17.7655C11.3225 17.7607 11.1425 17.6923 10.9985 17.5713C10.4837 17.0977 9.99453 16.5932 9.43073 16.0352Z" fill="#968E8E"/>
<path d="M17.4787 5.37109V7.08719H15.75V5.37109H17.4787Z" fill="#968E8E"/>
<path d="M15.7407 10.6461V8.92285H17.4686V10.6429L15.7407 10.6461Z" fill="#968E8E"/>
</g>
<defs>
<clipPath id="clip0_666_658">
<rect width="21" height="23" fill="white"/>
</clipPath>
</defs>
</svg>

<svg width="21" height="23" fill="none" xmlns="http://www.w3.org/2000/svg"><g clip-path="url(#clip0_666_658)" fill="#968E8E"><path d="M5.22 12.444H3.5c-.008-.127-.02-.237-.02-.353V2.776c0-1.651 1.103-2.77 2.731-2.77 3.992-.004 7.986-.004 11.982 0 1.633 0 2.789 1.104 2.795 2.768.017 5.277.017 10.554 0 15.83 0 1.584-1.166 2.726-2.722 2.727-2.736.003-5.472.003-8.209 0h-.631c.608-.61 1.13-1.15 1.676-1.664.094-.09.286-.097.434-.098 2.177-.005 4.354-.005 6.532 0 .845 0 1.152-.31 1.152-1.16V2.896c0-.79-.294-1.09-1.078-1.09H6.32c-.821 0-1.1.281-1.1 1.104v9.535z"/><path d="M13.985 10.646H6.999c-.04-.92.29-1.688.87-2.36.581-.671 1.337-1.011 2.225-1.184-1.045-.451-1.534-1.237-1.348-2.111.08-.415.301-.787.626-1.051a1.74 1.74 0 0 1 2.27.062c.31.281.512.665.569 1.084.126.884-.37 1.637-1.367 1.999 1.91.433 2.988 1.566 3.14 3.56zM5.227 19.56H.002v-1.774h5.206v-3.409l4.265 4.334c-1.364 1.38-2.8 2.83-4.247 4.292l.001-3.442zM6.982 12.476h10.494V14.2c-.141.008-.266.02-.39.021h-8.95a1.124 1.124 0 0 1-.82-.337 1.157 1.157 0 0 1-.334-.832v-.577zM9.43 16.035h8.04v1.737h-.481c-1.826 0-3.655.006-5.48-.006a.827.827 0 0 1-.51-.195c-.515-.473-1.004-.978-1.568-1.536zM17.479 5.371v1.716H15.75V5.371h1.729zM15.74 10.646V8.923h1.729v1.72l-1.728.003z"/></g><defs><clipPath id="clip0_666_658"><path fill="#fff" d="M0 0h21v23H0z"/></clipPath></defs></svg>
